X:1
T:Sechs Lieder, Op.25
T:Barcarole
T:Sechs Lieder, Op.25
T:3. Barcarole
T:Josephine Lang
T:OpenScore (CC0)
T:OpenScore (CC0)
T:OpenScore (CC0)
C:Josephine Lang
Z:unknown
Z:OpenScore (CC0)
%%score 1 { 2 | ( 3 4 ) }
L:1/8
Q:1/4=45
M:4/4
K:D
V:1 treble nm="Voice"
V:2 treble nm="Pianoforte"
V:3 bass 
V:4 bass 
V:1
"^Mässig und wiegend." z8 | z8 | z8 | z8 |:S!p! F2 A3/2 d/ f2 d2 | F2 A3/2 A/ F2 D2 | %6
w: ||||1. Nimm du mein Schiff- lein,|freund- li- che Wie- ge,|
w: ||||2. Sin- ket und stei- get,|wech- seln- den Schla- ges,|
w: ||||3. Gau- keln- de Mö- ven,|bun- te Li- bel- len,|
 F2 A z/ d/ f2 e2 | d2{ed} c3/2 B/ A2 z2 | F2 A3/2 d/ f2 d2 | F2 A3/2 A/ F2 D2 | F2 A3/2 d/ f2 e2 | %11
w: zwi- schen zwei Him- mel|ret- tend mich auf.|Fur- che die Bläu- e|und es be- sie- ge|tän- deln- de Wel- len|
w: plät- schern- de Ru- der,|hüp- fen- des Herz.|Glück- li- che Kin- der|se- li- gen Ta- ges|schen- ket die Lie- be|
w: sprin- gen- de Fisch- lein,|fol- get der Fahrt.|Glück- li- che wol- len|mir sich ge- sel- len,|seit ich vom Her- zen|
 d2 c3/2 B/ A2 z2 | B2 e z/ e/ e2 A2 | B2 e3/2 e/ e2 A2 | E2 F3/2 G/ A2 B2 | c2{dc} B A (=f2 e2) | %16
w: spie- lend dein Lauf.|Sin- ket und stei- get|wech- seln- den Schla- ges,|plät- schern- de Ru- der,|hüp- fen- des Herz, _|
w: Freu- de und Schmerz.|Gün- sti- ge Lüf- te,|trei- bet nach Mor- gen,|fül- let die Se- gel,|kräu- selt die Fluth, _|
w: glück- li- cher ward.|Fei- ert, ihr Ru- der,|Se- gel her- nie- der,|lan- de nur  sach- te|glei- ten- der Kahn. _|
 B2 e3/2 e/ e2 A2 |"^riten." B2!mf![Q:1/4=35]!>(! f3/2!>)!!p! e/ d2 c2 | d2 F3/2 A/ B2 D2 | %19
w: un- glei- che Kin- der|se- li- gen Ta- ges|schen- ket die Lie- be|
w: wei- chet, * A- bend,|gräm- li- che Sor- gen,|läch- le mir Hoff- nung|
w: Flu- then- der Spie- gel,|siehst mich nicht wie- der,|Eb- ne des Schif- fers,|
 !turn!C2 B3/2 A/ D4 | %20
w: Freu- de und Schmerz!|
w: fröh- li- chen Muth!|
w: schwin- den- de Bahn.|
[Q:1/4=35] z8[Q:1/4=35]"^.2"[Q:1/4=35]"^.4"[Q:1/4=35]"^.6"[Q:1/4=35]"^.8"[Q:1/4=36][Q:1/4=36]"^.1"[Q:1/4=36]"^.3"[Q:1/4=36]"^.5"[Q:1/4=36]"^.7"[Q:1/4=36]"^.9"[Q:1/4=37]"^.1"[Q:1/4=37]"^.3" | %21
w: |
w: |
w: |
[Q:1/4=37]"^.5" z8[Q:1/4=37]"^.7"[Q:1/4=37]"^.9"[Q:1/4=38]"^.1"[Q:1/4=38]"^.3"[Q:1/4=38]"^.5"[Q:1/4=38]"^.6"[Q:1/4=38]"^.8"[Q:1/4=39][Q:1/4=39]"^.2"[Q:1/4=39]"^.4"[Q:1/4=39]"^.6"[Q:1/4=39]"^.8" | %22
w: |
w: |
w: |
[Q:1/4=40] z8[Q:1/4=40]"^.2"[Q:1/4=40]"^.4"[Q:1/4=40]"^.6"[Q:1/4=40]"^.8"[Q:1/4=41][Q:1/4=41]"^.1"[Q:1/4=41]"^.3"[Q:1/4=41]"^.5"[Q:1/4=41]"^.6"[Q:1/4=41]"^.7"[Q:1/4=41]"^.9"[Q:1/4=42]"^.1"[Q:1/4=42]"^.2"[Q:1/4=42]"^.3" | %23
w: |
w: |
w: |
[Q:1/4=42]"^.5" z8[Q:1/4=42]"^.7"[Q:1/4=42]"^.9"[Q:1/4=43]"^.1"[Q:1/4=43]"^.3"[Q:1/4=43]"^.5"[Q:1/4=43]"^.8"[Q:1/4=44][Q:1/4=44]"^.2"[Q:1/4=44]"^.4"[Q:1/4=44]"^.6"[Q:1/4=44]"^.8" :| %24
w: |
w: |
w: |
S[Q:1/4=45] z8 |] %25
w: |
w: |
w: |
V:2
 (3FD[I:staff +1]F,[I:staff -1] (3D[I:staff +1]F,D,[I:staff -1] (3FD[I:staff +1]F,[I:staff -1] (3D[I:staff +1]F,D, | %1
[I:staff -1] (3dFD (3FD[I:staff +1]F,[I:staff -1] (3FD[I:staff +1]F,[I:staff -1] (3FD[I:staff +1]F, | %2
[I:staff -1] (3B[DE]B,!p!!>(! (3E[B,D][I:staff +1]E,[I:staff -1] (3A[CE][I:staff +1]G,!>)![I:staff -1] (3E[I:staff +1][G,C]E, | %3
[I:staff -1] (3FD[I:staff +1]F,[I:staff -1] (3D[I:staff +1]F,D,[I:staff -1] (3FD[I:staff +1]F,[I:staff -1] (3D[I:staff +1]F,D, |: %4
[I:staff -1] (3FD[I:staff +1]F,[I:staff -1] (3D[I:staff +1]F,D,[I:staff -1] (3FD[I:staff +1]F,[I:staff -1] (3D[I:staff +1]F,D, | %5
[I:staff -1] (3FD[I:staff +1]F,[I:staff -1] (3A[CE][I:staff +1]G,[I:staff -1] (3F[I:staff +1]A,F,[I:staff -1] (3D[I:staff +1]F,D, | %6
[I:staff -1] (3z[I:staff +1] F,A,[I:staff -1] (3FD[I:staff +1]F,[I:staff -1] (3^GEB, (3AEA, | %7
 (3AFB, (3^GEB, (3AEC (3ECA, | %8
 (3FD[I:staff +1]F,[I:staff -1] (3D[I:staff +1]F,D,[I:staff -1] (3FD[I:staff +1]F,[I:staff -1] (3D[I:staff +1]F,D, | %9
[I:staff -1] (3FD[I:staff +1]F,[I:staff -1] (3EC[I:staff +1]E,[I:staff -1] (3z[I:staff +1] F,A,[I:staff -1] (3D[I:staff +1]A,F, | %10
[I:staff -1] (3z[I:staff +1] F,[I:staff -1]D (3FD[I:staff +1]F,[I:staff -1] (3^GEB, (3AE[I:staff +1]A, | %11
[I:staff -1] (3AFB, (3^GEB, (3AEC (3ECA, | (3B,=GE (3BGE (3A,GE (3AGE | (3B,GE (3BGE (3A,GE (3AGE | %14
 (3z G[cea] (3z E[Gce] (3z C[EGc] (3z A,[CEA] | %15
 (3z[I:staff +1] G,C[I:staff -1] (3EC[I:staff +1]G,[I:staff -1] (3DB,[I:staff +1]=F, (3CA,E, | %16
[I:staff -1] (3z B,G (3EBG (3AGE (3A,GE | (3B,GE (3BGE (3A,GC (3AGC | %18
[I:staff +1] (3F,[I:staff -1]D[I:staff +1]A,[I:staff -1] (3FD[I:staff +1]A, (3=F,DB,[I:staff -1] (3=FD[I:staff +1]B, | %19
 (3=G,CA,[I:staff -1] (3EC[I:staff +1]A,[I:staff -1] D2 z2 | [Gg]2 [Aa]>[Bb] [Aa]2 [dd']2 | %21
 [ee']2 [ff']>[gg'] [aa']4 |!8va(! [bb']2 [gg']>[ff'] [ee'][Bb]!8va)!"^loco" [Aa][Gg] | %23
 [Ff]2 [Acea]2 [FAdf]4 :| [Ff]2 [Gcea]2 !fermata![FAdf]4 |] %25
V:3
!p!"_cantando" D,2 C,2 B,,2 ^A,,>A,, | B,,2 ^A,,>A,, B,,=A,, G,,F,, | G,,2 F,,,>G,,, A,,,2 A,,2 | %3
 D,,2 A,,>A,, D,,2 A,,2 |: D,2 C,2 B,,2 ^A,,2 | B,,2 =A,,2 D,,4 | D,2 C,2 B,,2 C,2 | D,2 E,2 A,,4 | %8
 [D,,D,]2 [C,,C,]2 [B,,,B,,]2 [^A,,,^A,,]2 | [B,,,B,,]2 [=A,,,=A,,]2 D,,4 | %10
 [D,,D,]2 [C,,C,]2 [B,,,B,,]2 [C,,C,]2 | [D,,D,]2 [E,,E,]2 [A,,,A,,]4 | %12
"^dolce" !arpeggio![A,,B,,E,G,]4 !arpeggio![A,,C,E,G,]4 | %13
 !arpeggio![A,,B,,E,G,]4 !arpeggio![A,,C,E,G,]4 | A,,2 E,2 A,2 E,2 | %15
 A,,2 A,,,2 [^G,,,^G,,]2 [A,,,A,,]2 | !arpeggio![A,,B,,E,G,]4 !arpeggio![A,,C,E,G,]4 | %17
 [A,,B,,E,G,]4 [A,,C,E,G,]4 | [D,,A,,D,]4 [^G,,,^G,,]4 | [A,,,A,,]4 (3D,,A,,D,(3A,D[I:staff -1]F | %20
[I:staff +1] (3[D,,D,]G,B, (3DB,G, (3D,A,D (3FDA, | (3G,CE (3AEC (3F,=C^D (3ADC | %22
 (3[G,,G,]B,E[K:treble] (3BEB, (3G,B,D (3EB,G, | %23
[K:bass] (3A,D,A,, (3G,E,A,, (3D,,A,,D, (3F,D,A,, :| (3A,D,A,, (3A,E,A,, (3D,,D,G, !fermata!D2 |] %25
V:4
 x8 | x8 | x8 | x8 |: x8 | x8 | x8 | x8 | x8 | x8 | x8 | x8 | x8 | x8 | A,,8 | x8 | x8 | x8 | x8 | %19
 x4 F,2 x2 | x8 | x8 | x2[K:treble] x6 |[K:bass] x8 :| x8 |] %25

